src/assets/images/whiteboard/cursor-2.svg

<svg width="102" height="64" viewBox="0 0 102 64" fill="none" xmlns="http://www.w3.org/2000/svg">
    <path d="M96.7808 31.5359H16.383C13.9958 31.5359 12.0605 33.8891 12.0605 36.7919V57.8159C12.0605 60.7187 13.9958 63.0719 16.383 63.0719H96.7808C99.168 63.0719 101.103 60.7187 101.103 57.8159V36.7919C101.103 33.8891 99.168 31.5359 96.7808 31.5359Z" fill="#359AC0"/>
    <path d="M1.45729 0C1.07129 0 0.700605 0.149283 0.426829 0.414275C0.153904 0.680105 0 1.03983 0 1.41551V25.482C0 25.8577 0.153904 26.2182 0.426829 26.4832C0.700605 26.749 1.07129 26.8983 1.45729 26.8983C1.6826 26.8975 1.9054 26.8463 2.1069 26.7482C2.30841 26.6509 2.48355 26.5084 2.61873 26.334L7.17089 21.4039L7.6521 20.687C9.4614 20.0907 7.6521 20.7037 8.92746 20.2903C9.98005 19.8257 8.51849 20.4169 10.2028 19.8593L10.843 19.8752L18.9517 19.8199C19.3343 19.8199 19.7084 19.6706 19.9805 19.4048C20.2526 19.1398 20.4056 18.7792 20.4056 18.4035C20.4056 18.193 20.3546 17.9842 20.2611 17.7938C20.1676 17.6035 20.0315 17.4358 19.8615 17.3033L2.59917 0.536704C2.46313 0.368988 2.28885 0.233969 2.09159 0.141725C1.89349 0.048643 1.6775 0 1.45729 0Z" fill="#359AC0"/>
    <path d="M24.3126 52.7289C22.6802 52.7289 21.1368 51.8088 20.9884 49.7014C20.9735 49.4788 21.0922 49.3749 21.2852 49.3749H22.042C22.2201 49.3749 22.3388 49.4788 22.3685 49.6866C22.4724 50.9183 23.2886 51.3932 24.3126 51.3932C25.4257 51.3932 26.2864 50.8441 26.2864 49.553V42.4741C26.2864 42.2664 26.3903 42.1476 26.598 42.1476H27.3401C27.5478 42.1476 27.6517 42.2664 27.6517 42.4741V49.553C27.6517 51.7197 26.0341 52.7289 24.3126 52.7289ZM34.0677 52.7289C31.8861 52.7289 30.1498 51.0371 30.1498 48.8258C30.1498 46.6295 31.8861 44.9376 34.0677 44.9376C36.2344 44.9376 37.9707 46.6295 37.9707 48.8258C37.9707 51.0371 36.2344 52.7289 34.0677 52.7289ZM34.0677 51.4674C35.5369 51.4674 36.6796 50.3247 36.6796 48.8258C36.6796 47.327 35.5369 46.1842 34.0677 46.1842C32.5836 46.1842 31.4409 47.327 31.4409 48.8258C31.4409 50.3247 32.5836 51.4674 34.0677 51.4674ZM44.0341 44.9376C45.4142 44.9376 46.5124 45.9765 46.5124 47.7276V52.2243C46.5124 52.4321 46.4085 52.5359 46.2008 52.5359H45.5478C45.34 52.5359 45.2213 52.4321 45.2213 52.2243V47.7722C45.2213 46.7037 44.5683 46.1546 43.6927 46.1546C42.7578 46.1546 41.8377 46.7185 41.8377 48.3213V52.2243C41.8377 52.4321 41.719 52.5359 41.526 52.5359H40.8582C40.6504 52.5359 40.5466 52.4321 40.5466 52.2243V42.4741C40.5466 42.2664 40.6504 42.1476 40.8582 42.1476H41.526C41.719 42.1476 41.8377 42.2664 41.8377 42.4741V46.0358C42.3719 45.2344 43.1288 44.9376 44.0341 44.9376ZM52.8411 44.9376C54.2212 44.9376 55.3194 45.9765 55.3194 47.7276V52.2243C55.3194 52.4321 55.2155 52.5359 55.0078 52.5359H54.3548C54.147 52.5359 54.0283 52.4321 54.0283 52.2243V47.7722C54.0283 46.7037 53.3753 46.1546 52.4997 46.1546C51.5648 46.1546 50.6447 46.7185 50.6447 48.3213V52.2243C50.6447 52.4321 50.5259 52.5359 50.333 52.5359H49.6652C49.4574 52.5359 49.3535 52.4321 49.3535 52.2243V45.4422C49.3535 45.2344 49.4574 45.1157 49.6652 45.1157H50.333C50.5259 45.1157 50.6447 45.2344 50.6447 45.4422V46.0358C51.1789 45.2344 51.9358 44.9376 52.8411 44.9376ZM67.3766 42.1476C70.2408 42.1476 72.3184 44.4627 72.3184 47.3418C72.3184 50.2357 70.2408 52.5359 67.3766 52.5359H63.5626H63.3548C63.147 52.5359 63.0432 52.4321 63.0432 52.2243V42.4741C63.0432 42.2664 63.147 42.1476 63.3548 42.1476H64.4085H67.3766ZM67.3766 51.23C69.5284 51.23 70.9828 49.5382 70.9828 47.3418C70.9828 45.1602 69.5284 43.4536 67.3766 43.4536H64.4085V51.23H67.3766ZM78.4649 52.7289C76.2834 52.7289 74.5471 51.0371 74.5471 48.8258C74.5471 46.6295 76.2834 44.9376 78.4649 44.9376C80.6316 44.9376 82.368 46.6295 82.368 48.8258C82.368 51.0371 80.6316 52.7289 78.4649 52.7289ZM78.4649 51.4674C79.9341 51.4674 81.0769 50.3247 81.0769 48.8258C81.0769 47.327 79.9341 46.1842 78.4649 46.1842C76.9809 46.1842 75.8382 47.327 75.8382 48.8258C75.8382 50.3247 76.9809 51.4674 78.4649 51.4674ZM88.3571 44.9376C90.598 44.9376 91.993 46.763 91.993 48.8555C91.993 48.9446 91.993 49.0336 91.993 49.1226C91.9782 49.3304 91.8446 49.4195 91.6517 49.4195H90.6871H85.8491C86.0717 50.7848 87.0808 51.5713 88.3868 51.5713C89.2476 51.5713 89.9154 51.2003 90.2567 50.6809C90.3606 50.5473 90.4645 50.4731 90.6426 50.4731H91.3549C91.5923 50.4731 91.7111 50.6067 91.622 50.7996C91.1026 51.972 89.8857 52.7289 88.372 52.7289C86.0569 52.7289 84.5135 51.0667 84.5135 48.8258C84.5135 46.6443 86.042 44.9376 88.3571 44.9376ZM85.8491 48.2916H90.6871C90.4942 46.8372 89.4702 46.1397 88.3571 46.1397C86.977 46.1397 86.042 47.0005 85.8491 48.2916Z" fill="white"/>
</svg>

<?xml version="1.0" encoding="utf-8"?>
<!-- Generator: Adobe Illustrator 28.0.0, SVG Export Plug-In . SVG Version: 6.00 Build 0)  -->
<svg version="1.1" id="Layer_1" xmlns="http://www.w3.org/2000/svg" xmlns:xlink="http://www.w3.org/1999/xlink" x="0px" y="0px"
	 viewBox="0 0 79.4 64" style="enable-background:new 0 0 79.4 64;" xml:space="preserve">
<style type="text/css">
	.st0{fill:#359AC0;}
	.st1{fill:#FFFFFF;}
	.st2{font-family:'QanelasSoft-Medium';}
	.st3{font-size:15.0675px;}
</style>
<path class="st0" d="M74.1,31.5H17c-1.7,0-3.1,2.4-3.1,5.3v21c0,2.9,1.4,5.3,3.1,5.3h57.1c1.7,0,3.1-2.4,3.1-5.3v-21
	C77.2,33.9,75.8,31.5,74.1,31.5z"/>
<path class="st0" d="M1.5,0c-0.4,0-0.8,0.1-1,0.4C0.2,0.7,0,1,0,1.4v24.1c0,0.4,0.2,0.7,0.4,1c0.3,0.3,0.6,0.4,1,0.4
	c0.2,0,0.4-0.1,0.6-0.2c0.2-0.1,0.4-0.2,0.5-0.4l4.6-4.9l0.5-0.7c1.8-0.6,0,0,1.3-0.4c1.1-0.5-0.4,0.1,1.3-0.4l0.6,0l8.1-0.1
	c0.4,0,0.8-0.1,1-0.4c0.3-0.3,0.4-0.6,0.4-1c0-0.2-0.1-0.4-0.1-0.6c-0.1-0.2-0.2-0.4-0.4-0.5L2.6,0.5C2.5,0.4,2.3,0.2,2.1,0.1
	C1.9,0,1.7,0,1.5,0z"/>
<text transform="matrix(1 0 0 1 25.75 52.8976)" class="st1 st2 st3">Jorge</text>
</svg>
